build/system/CameraSolid.svg

<svg xmlns="http://www.w3.org/2000/svg" fill="none" viewBox="0 0 24 24" focusable="false"><path d="M0 0H24V24H0z"/><path fill="#74767B" fill-rule="evenodd" d="M16.3476 5.96229L18 5.96229C19.6569 5.96229 21 7.30543 21 8.96229L21 16.9623C21 18.6191 19.6569 19.9623 18 19.9623L6 19.9623C4.34315 19.9623 3 18.6191 3 16.9623L3 8.96229C3 7.30543 4.34315 5.96229 6 5.96229L7.65236 5.96229C8.08894 4.84519 9.17585 4.05389 10.4476 4.05389L13.5524 4.05389C14.8242 4.05389 15.9111 4.84519 16.3476 5.96229ZM18.0055 8.12142C17.4557 8.12142 17.01 8.57161 17.01 9.12142C17.01 9.67124 17.4557 10.1214 18.0055 10.1214C18.5553 10.1214 19.001 9.67124 19.001 9.12142C19.001 8.57161 18.5553 8.12142 18.0055 8.12142ZM16.2643 12.8832C16.2643 15.2304 14.3616 17.1332 12.0143 17.1332C9.66713 17.1332 7.76434 15.2304 7.76434 12.8832C7.76434 10.5359 9.66713 8.63315 12.0143 8.63315C14.3616 8.63315 16.2643 10.5359 16.2643 12.8832ZM14.9643 12.8832C14.9643 14.5124 13.6436 15.8331 12.0143 15.8331C10.3851 15.8331 9.06434 14.5124 9.06434 12.8832C9.06434 11.2539 10.3851 9.93315 12.0143 9.93315C13.6436 9.93315 14.9643 11.2539 14.9643 12.8832Z"/></svg>

<svg xmlns="http://www.w3.org/2000/svg" fill="none" viewBox="0 0 24 24" focusable="false"><path fill="#74767B" fill-rule="evenodd" d="M16.34 5.96H18c1.65 0 3 1.34 3 3v8c0 1.65-1.35 3-3 3H6c-1.66 0-3-1.35-3-3v-8c0-1.66 1.34-3 3-3h1.65a2.99 2.99 0 0 1 2.79-1.91h3.11c1.27 0 2.36.79 2.79 1.91M18 8.12c-.55 0-1 .45-1 1s.45 1 1 1 1-.45 1-1-.45-1-1-1m-1.74 4.76c0 2.35-1.9 4.25-4.25 4.25s-4.25-1.9-4.25-4.25 1.9-4.25 4.25-4.25 4.25 1.9 4.25 4.25m-1.3 0a2.949 2.949 0 1 1-5.9 0 2.949 2.949 0 1 1 5.9 0"/></svg>
